X: 19
T: Swallowtail Jig
O: Ryan 1883
Z: 1999 John Chambers <jc:trillian.mit.edu>
R: jig
B: Ryan’s Mammoth Collection, 1883; pg. 100
B: Kerr (Merry Melodies), vol. 2; No. 271, pg. 29
B: White's Unique Collection, 1896; No. 42
M: 6/8
L: 1/8
K: EDor
   E/F/ \
| "Em"GEE BEE | GEG BAG | "D"FDD ADD | dcd AGF \
| "Em"GEE BEE | GEG B2c | "D"dcd AGF | "Em"GEE E2 :|
|: B \
| "Em"Bcd e2f | e2f edB | Bcd e2f | edB "D"d2B \
| "Em"Bcd e2f | e2f edB | "D"dcd AGF | "Em"GEE E2 :|

%%sep 1 1 500

